src/rounded/icons/fi-rr-stethoscope.svg

<svg id="Layer_1" height="512" viewBox="0 0 24 24" width="512" xmlns="http://www.w3.org/2000/svg" data-name="Layer 1"><path d="m24 9a3 3 0 1 0 -4 2.816v4.184a6 6 0 0 1 -12 0v-.08a7.006 7.006 0 0 0 6-6.92v-4a5.006 5.006 0 0 0 -5-5 1 1 0 0 0 0 2 3 3 0 0 1 3 3v4a5 5 0 0 1 -10 0v-4a3 3 0 0 1 3-3 1 1 0 0 0 0-2 5.006 5.006 0 0 0 -5 5v4a7.006 7.006 0 0 0 6 6.92v.08a8 8 0 0 0 16 0v-4.184a3 3 0 0 0 2-2.816zm-3 1a1 1 0 1 1 1-1 1 1 0 0 1 -1 1z"/></svg>

<svg id="Layer_1" data-name="Layer 1" xmlns="http://www.w3.org/2000/svg" viewBox="0 0 24 24"><path d="M24,9a3,3,0,1,0-4,2.816V16A6,6,0,0,1,8,16v-.08A7.006,7.006,0,0,0,14,9V5A5.006,5.006,0,0,0,9,0,1,1,0,0,0,9,2a3,3,0,0,1,3,3V9A5,5,0,0,1,2,9V5A3,3,0,0,1,5,2,1,1,0,0,0,5,0,5.006,5.006,0,0,0,0,5V9a7.006,7.006,0,0,0,6,6.92V16a8,8,0,0,0,16,0V11.816A3,3,0,0,0,24,9Zm-3,1a1,1,0,1,1,1-1A1,1,0,0,1,21,10Z"/></svg>
